P2
# floodRISE deterministic demo depth, centimetres
24 24
120
0 0 0 0 0 0 0 0 0 0 0 0 0 0 0 0 0 0 0 0 0 0 0 0
0 0 0 0 0 0 0 0 0 0 0 0 0 0 0 0 0 0 0 0 0 0 0 0
0 0 0 0 0 0 0 0 0 0 0 0 0 0 0 0 0 0 0 0 0 0 0 0
0 0 0 0 0 0 0 0 0 0 0 0 0 0 0 0 0 0 0 0 0 0 0 0
0 0 0 6 12 13 12 6 0 0 0 0 0 0 0 0 0 0 0 0 0 0 0 0
6 0 11 21 28 30 28 21 11 0 0 0 0 0 0 0 0 0 0 0 0 0 0 0
12 11 22 32 43 47 43 32 20 7 0 0 0 0 0 0 0 0 0 0 0 0 0 0
17 19 31 43 54 66 51 37 23 9 0 0 0 0 0 0 0 0 0 0 0 0 0 0
12 15 30 43 52 55 48 35 20 7 0 0 0 0 0 0 0 0 0 0 0 0 0 0
6 8 16 28 37 42 38 29 17 13 16 18 20 21 20 18 14 9 0 0 0 0 0 0
0 0 0 8 16 20 20 19 27 32 36 38 39 38 36 33 28 22 16 8 0 0 0 0
0 0 0 0 0 6 11 23 33 44 53 59 60 59 56 50 43 35 27 18 8 0 0 0
0 0 0 0 0 5 16 26 37 49 59 69 76 80 77 70 60 49 38 26 16 5 0 0
0 0 0 0 0 9 20 31 42 53 63 75 85 90 89 83 75 62 49 36 23 10 0 0
0 0 0 0 0 11 22 33 44 55 66 78 89 101 92 83 74 64 55 44 31 17 10 8
0 0 0 0 0 9 20 31 42 53 63 73 81 84 81 73 64 56 48 39 30 21 15 13
0 0 0 0 0 5 16 26 36 45 54 61 66 68 66 61 54 45 36 28 20 12 14 16
0 0 0 0 0 0 8 18 27 35 42 48 51 53 51 48 42 35 27 18 8 6 8 10
0 0 0 0 0 0 0 8 16 22 28 33 36 37 36 33 28 22 16 8 0 0 0 0
0 0 0 0 0 0 0 0 0 9 14 18 20 21 20 18 14 9 0 0 0 0 0 0
0 0 0 0 0 0 0 0 0 0 0 0 0 0 0 0 0 0 0 0 0 0 0 0
0 0 0 0 0 0 0 0 0 0 0 0 0 0 0 0 0 0 0 0 0 0 0 0
0 0 0 0 0 0 0 0 0 0 0 0 0 0 0 0 0 0 0 0 0 0 0 0
0 0 0 0 0 0 0 0 0 0 0 0 0 0 0 0 0 0 0 0 0 0 0 0
