P2
# floodRISE deterministic demo depth, centimetres
24 24
120
0 0 0 0 0 0 0 0 0 0 0 0 0 0 0 0 0 0 0 0 0 0 0 0
0 0 0 0 0 0 0 0 0 0 0 0 0 0 0 0 0 0 0 0 0 0 0 0
0 0 0 0 0 0 0 0 0 0 0 0 0 0 0 0 0 0 0 0 0 0 0 0
0 0 0 0 0 0 0 0 0 0 0 0 0 0 0 0 0 0 0 0 0 0 0 0
0 0 0 1 4 6 4 1 0 0 0 0 0 0 0 0 0 0 0 0 0 0 0 0
1 0 4 10 15 17 15 10 4 0 0 0 0 0 0 0 0 0 0 0 0 0 0 0
4 4 11 18 25 28 25 18 10 1 0 0 0 0 0 0 0 0 0 0 0 0 0 0
8 9 17 25 33 41 30 21 12 3 0 0 0 0 0 0 0 0 0 0 0 0 0 0
4 7 17 26 31 33 28 20 10 1 0 0 0 0 0 0 0 0 0 0 0 0 0 0
1 2 7 15 21 25 22 16 8 6 7 9 10 11 10 8 6 3 0 0 0 0 0 0
0 0 0 2 7 10 10 10 15 18 21 22 23 22 20 19 16 12 7 2 0 0 0 0
0 0 0 0 0 0 4 12 19 26 32 36 37 36 34 30 25 20 14 9 2 0 0 0
0 0 0 0 0 0 7 14 21 29 36 43 47 50 48 43 37 30 22 14 7 0 0 0
0 0 0 0 0 3 10 17 25 32 39 46 53 57 56 52 46 38 30 21 12 4 0 0
0 0 0 0 0 4 11 19 26 34 41 48 56 64 58 52 46 40 34 26 17 8 3 2
0 0 0 0 0 3 10 17 25 32 39 45 50 53 50 45 40 34 28 23 17 11 7 5
0 0 0 0 0 0 7 14 21 27 33 38 41 42 41 38 33 27 21 15 10 4 6 7
0 0 0 0 0 0 2 9 14 20 25 28 31 32 31 28 25 20 14 9 2 1 2 3
0 0 0 0 0 0 0 2 7 12 16 19 20 21 20 19 16 12 7 2 0 0 0 0
0 0 0 0 0 0 0 0 0 3 6 8 10 11 10 8 6 3 0 0 0 0 0 0
0 0 0 0 0 0 0 0 0 0 0 0 0 0 0 0 0 0 0 0 0 0 0 0
0 0 0 0 0 0 0 0 0 0 0 0 0 0 0 0 0 0 0 0 0 0 0 0
0 0 0 0 0 0 0 0 0 0 0 0 0 0 0 0 0 0 0 0 0 0 0 0
0 0 0 0 0 0 0 0 0 0 0 0 0 0 0 0 0 0 0 0 0 0 0 0
